X: 2
T: No_100_Hand_Game_Song_(g).krn
N: Derived from No_100_Hand_Game_Song_(g).krn
%%abc-version 2.0
%%abcx-abcm2ps-target-version 5.9.1 (29 Sep 2008)
%%abc-creator hum2abc beta
%%abcx-conversion-date 2019/03/15 08:36:49
%%humdrum-veritas 1291305489
%%humdrum-veritas-data 1116237974
%%linebreak <none>
%%barnumbers 0
L: 1/16
M: 3/4
%%staves {1 2}
V: 1 clef=bass
V: 2 clef=bass
K: C
[V:1] [K:clef=bass][M:3/4]D4A,2D3/D/A,4 [I:setbarnb 2]| 
[V:2] [K:clef=bass][M:3/4]G,,G,,G,,G,, G,,G,,G,,G,, G,,G,,G,,G,, | 
[V:1] D2E2 D2E2 D3/D/A,2 | 
[V:2] z12 | 
[V:1] D2E2 D2A,3/A,/A,4 | 
[V:2] z12 | 
[V:1] D4A,2A,3/A,/A,4 | 
[V:2] z12 | 
[V:1] D4A,A,D3/D/A,4 | 
[V:2] z12 | 
[V:1] D4(3A,2A,2A,2A,4 | 
[V:2] z12 | 
[V:1] (3A,2A,2A,2 (3A,2A,2A,2A,4 :|]  
[V:2] z12 :|]  



